img/JOKER.svg

<?xml version="1.0" encoding="UTF-8" standalone="no"?>

<!-- http://code.google.com/p/vector-playing-cards/ -->

<svg
   xmlns:dc="http://purl.org/dc/elements/1.1/"
   xmlns:cc="http://creativecommons.org/ns#"
   xmlns:rdf="http://www.w3.org/1999/02/22-rdf-syntax-ns#"
   xmlns:svg="http://www.w3.org/2000/svg"
   xmlns="http://www.w3.org/2000/svg"
   xmlns:sodipodi="http://sodipodi.sourceforge.net/DTD/sodipodi-0.dtd"
   xmlns:inkscape="http://www.inkscape.org/namespaces/inkscape"
   width="167.0869141pt"
   height="242.6669922pt"
   viewBox="0 0 167.0869141 242.6669922"
   xml:space="preserve"
   id="svg2"
   version="1.1"
   inkscape:version="0.48.0 r9654"
   sodipodi:docname="red_joker.svg"
   inkscape:export-filename="/home/byron/art/cards/final/PNGs/red_joker.png"
   inkscape:export-xdpi="215.44792"
   inkscape:export-ydpi="215.44792"><metadata
   id="metadata43"><rdf:RDF><cc:Work
       rdf:about=""><dc:format>image/svg+xml</dc:format><dc:type
         rdf:resource="http://purl.org/dc/dcmitype/StillImage" /><dc:title></dc:title></cc:Work></rdf:RDF></metadata><defs
   id="defs41" /><sodipodi:namedview
   pagecolor="#ffffff"
   bordercolor="#666666"
   borderopacity="1"
   objecttolerance="10"
   gridtolerance="10"
   guidetolerance="10"
   inkscape:pageopacity="0"
   inkscape:pageshadow="2"
   inkscape:window-width="1680"
   inkscape:window-height="977"
   id="namedview39"
   showgrid="false"
   inkscape:zoom="2.4336873"
   inkscape:cx="41.637871"
   inkscape:cy="152.384"
   inkscape:window-x="0"
   inkscape:window-y="25"
   inkscape:window-maximized="1"
   inkscape:current-layer="svg2" />
	<g
   id="Layer_x0020_1"
   style="fill-rule:nonzero;clip-rule:nonzero;stroke:#000000;stroke-miterlimit:4;">
		<path
   style="fill:#FFFFFF;stroke-width:0.5;"
   d="M166.8369141,235.5478516c0,3.7773438-3.0869141,6.8691406-6.8710938,6.8691406H7.1108398c-3.7749023,0-6.8608398-3.0917969-6.8608398-6.8691406V7.1201172C0.25,3.3427734,3.3359375,0.25,7.1108398,0.25h152.8549805    c3.7841797,0,6.8710938,3.0927734,6.8710938,6.8701172v228.4277344z"
   id="path5" />
		<g
   style="stroke:none;"
   id="g7">
			<g
   id="g9">
				
			</g>
			
		</g>
		<g
   id="g15">
			
		</g>
		<g
   id="g19">
			
		</g>
		<g
   style="stroke:none;"
   id="g23">
			<g
   id="g25">
				
			</g>
			
		</g>
		<g
   style="stroke:none;"
   id="g31">
			<g
   id="g33">
				
			</g>
			
		</g>
	</g>
<text
   xml:space="preserve"
   style="font-size:32px;font-style:normal;font-weight:normal;line-height:125%;letter-spacing:0px;word-spacing:0px;fill:#df0000;fill-opacity:1;stroke:none;font-family:Bitstream Vera Sans"
   x="3.9446316"
   y="27.355848"
   id="text3788"
   sodipodi:linespacing="125%"><tspan
     sodipodi:role="line"
     id="tspan3790"
     x="3.9446316"
     y="27.355848"
     style="font-style:italic;font-variant:normal;font-weight:bold;font-stretch:normal;font-family:LMMathSymbols9;-inkscape-font-specification:LMMathSymbols9 Bold Italic;fill:#df0000;fill-opacity:1">J</tspan></text>








<g
   transform="matrix(2.2711763,2.2711763,-2.0765626,2.0765626,117.0668,94.436511)"
   id="layer1-7-88"><path
     id="sl-4"
     d="M 7.989,3.103 C 7.747,-0.954 0.242,-8.59 0,-10.5 c -0.242,1.909 -7.747,9.545 -7.989,13.603 -0.169,2.868 1.695,4.057 3.39,4.057 1.8351685,-0.021581 3.3508701,-2.8006944 3.873,-3.341 0.242,0.716 -1.603,6.682 -2.179,6.682 l 5.811,0 C 2.33,10.501 0.485,4.535 0.727,3.819 1.1841472,4.3152961 2.5241276,7.0768295 4.601,7.16 6.295,7.159 8.158,5.971 7.989,3.103 z"
     inkscape:connector-curvature="0"
     style="fill:#000000"
     sodipodi:nodetypes="cccccccccc" /></g>

<text
   xml:space="preserve"
   style="font-size:32px;font-style:normal;font-weight:normal;line-height:125%;letter-spacing:0px;word-spacing:0px;fill:#df0000;fill-opacity:1;stroke:none;font-family:Bitstream Vera Sans"
   x="4.2733507"
   y="49.051323"
   id="text3019"
   sodipodi:linespacing="125%"><tspan
     sodipodi:role="line"
     id="tspan3021"
     x="4.2733507"
     y="49.051323"
     style="font-size:38.40000152999999727px;font-style:italic;font-variant:normal;font-weight:bold;font-stretch:normal;font-family:URW Chancery L;-inkscape-font-specification:URW Chancery L Bold Italic;fill:#df0000;fill-opacity:1">o</tspan></text>




<text
   xml:space="preserve"
   style="font-size:32px;font-style:normal;font-weight:normal;line-height:125%;letter-spacing:0px;word-spacing:0px;fill:#df0000;fill-opacity:1;stroke:none;font-family:Bitstream Vera Sans"
   x="2.6297548"
   y="76.992462"
   id="text3023"
   sodipodi:linespacing="125%"><tspan
     sodipodi:role="line"
     id="tspan3025"
     x="2.6297548"
     y="76.992462"
     style="font-size:38.40000152999999727px;font-style:italic;font-variant:normal;font-weight:bold;font-stretch:normal;font-family:URW Chancery L;-inkscape-font-specification:URW Chancery L Bold Italic;fill:#df0000;fill-opacity:1">k</tspan></text>




<text
   xml:space="preserve"
   style="font-size:32px;font-style:normal;font-weight:normal;line-height:125%;letter-spacing:0px;word-spacing:0px;fill:#df0000;fill-opacity:1;stroke:none;font-family:Bitstream Vera Sans"
   x="2.6297553"
   y="99.345383"
   id="text3027"
   sodipodi:linespacing="125%"><tspan
     sodipodi:role="line"
     id="tspan3029"
     x="2.6297553"
     y="99.345383"
     style="font-size:38.40000152999999727px;font-style:italic;font-variant:normal;font-weight:bold;font-stretch:normal;font-family:URW Chancery L;-inkscape-font-specification:URW Chancery L Bold Italic;fill:#df0000;fill-opacity:1">e</tspan></text>




<text
   xml:space="preserve"
   style="font-size:32px;font-style:normal;font-weight:normal;line-height:125%;letter-spacing:0px;word-spacing:0px;fill:#df0000;fill-opacity:1;stroke:none;font-family:Bitstream Vera Sans"
   x="2.3010359"
   y="120.3834"
   id="text3031"
   sodipodi:linespacing="125%"><tspan
     sodipodi:role="line"
     id="tspan3033"
     x="2.3010359"
     y="120.3834"
     style="font-size:38.40000152999999727px;font-style:italic;font-variant:normal;font-weight:bold;font-stretch:normal;font-family:URW Chancery L;-inkscape-font-specification:URW Chancery L Bold Italic;fill:#df0000;fill-opacity:1">r</tspan></text>




<g
   transform="matrix(2.374378,-2.374378,2.2221918,2.2221918,59.383523,95.635421)"
   id="layer1-9"><path
     style="fill:#df0000"
     inkscape:connector-curvature="0"
     id="hl"
     d="M 3.676,-9 C 0.433,-9 0,-5.523 0,-5.523 0,-5.523 -0.433,-9 -3.676,-9 -5.946,-9 -8,-7.441 -8,-4.5 -8,-0.614 -1.4208493,3.2938141 0,9 1.35201,3.2985969 8,-0.614 8,-4.5 8,-7.441 5.946,-9 3.676,-9 z"
     sodipodi:nodetypes="scsscss" /></g><g
   transform="matrix(-2.145754,-2.145754,2.145754,-2.145754,110.19878,305.77847)"
   id="layer1-1"><path
     id="cl"
     d="m 50.291466,22.698228 c 0,0 2.375,-1.9 2.375,-4.534 0,-1.542 -1.369,-4.102 -4.534,-4.102 -3.165,0 -4.534,2.561 -4.534,4.102 0,2.634 2.375,4.534 2.375,4.534 -2.638,-2.055 -7.341,-0.652 -7.341,3.455 0,2.056 1.68,4.318 4.318,4.318 3.165,0 4.534,-3.455 4.534,-3.455 0,0 0.402,3.938 -1.943,6.046 h 5.182 c -2.345,-2.107 -1.943,-6.046 -1.943,-6.046 0,0 1.369,3.455 4.534,3.455 2.639,0 4.318,-2.263 4.318,-4.318 0,-4.107 -4.703,-5.51 -7.341,-3.455 z"
     inkscape:connector-curvature="0"
     style="fill:#000000" /></g><g
   transform="matrix(2.235014,-2.235014,2.235014,2.235014,117.78936,156.16707)"
   id="layer1-2"><path
     style="fill:#df0000"
     inkscape:connector-curvature="0"
     id="dl"
     d="M 3.2433274,-4.7253274 C 1.1263274,-7.5893274 0,-10.5 0,-10.5 c 0,0 -1.1263274,2.9106726 -3.2433274,5.7746726 C -5.3613274,-1.8623274 -8,0 -8,0 -8,0 -5.3613274,1.8613274 -3.2433274,4.7263274 -1.1263274,7.5893274 0,10.5 0,10.5 0,10.5 1.1263274,7.5893274 3.2433274,4.7263274 5.3613274,1.8613274 8,0 8,0 8,0 5.3613274,-1.8623274 3.2433274,-4.7253274 z"
     sodipodi:nodetypes="ccccccccc" /></g>









<text
   xml:space="preserve"
   style="font-size:32px;font-style:normal;font-weight:normal;line-height:125%;letter-spacing:0px;word-spacing:0px;fill:#df0000;fill-opacity:1;stroke:none;font-family:Bitstream Vera Sans"
   x="-163.71599"
   y="-215.00195"
   id="text3788-8"
   sodipodi:linespacing="125%"
   transform="scale(-1,-1)"><tspan
     sodipodi:role="line"
     id="tspan3790-8"
     x="-163.71599"
     y="-215.00195"
     style="font-style:italic;font-variant:normal;font-weight:bold;font-stretch:normal;font-family:LMMathSymbols9;-inkscape-font-specification:LMMathSymbols9 Bold Italic;fill:#df0000;fill-opacity:1">J</tspan></text>


<text
   xml:space="preserve"
   style="font-size:32px;font-style:normal;font-weight:normal;line-height:125%;letter-spacing:0px;word-spacing:0px;fill:#df0000;fill-opacity:1;stroke:none;font-family:Bitstream Vera Sans"
   x="-163.38727"
   y="-193.30647"
   id="text3019-4"
   sodipodi:linespacing="125%"
   transform="scale(-1,-1)"><tspan
     sodipodi:role="line"
     id="tspan3021-3"
     x="-163.38727"
     y="-193.30647"
     style="font-size:38.40000152999999727px;font-style:italic;font-variant:normal;font-weight:bold;font-stretch:normal;font-family:URW Chancery L;-inkscape-font-specification:URW Chancery L Bold Italic;fill:#df0000;fill-opacity:1">o</tspan></text>


<text
   xml:space="preserve"
   style="font-size:32px;font-style:normal;font-weight:normal;line-height:125%;letter-spacing:0px;word-spacing:0px;fill:#df0000;fill-opacity:1;stroke:none;font-family:Bitstream Vera Sans"
   x="-165.03085"
   y="-165.36533"
   id="text3023-1"
   sodipodi:linespacing="125%"
   transform="scale(-1,-1)"><tspan
     sodipodi:role="line"
     id="tspan3025-4"
     x="-165.03085"
     y="-165.36533"
     style="font-size:38.40000152999999727px;font-style:italic;font-variant:normal;font-weight:bold;font-stretch:normal;font-family:URW Chancery L;-inkscape-font-specification:URW Chancery L Bold Italic;fill:#df0000;fill-opacity:1">k</tspan></text>


<text
   xml:space="preserve"
   style="font-size:32px;font-style:normal;font-weight:normal;line-height:125%;letter-spacing:0px;word-spacing:0px;fill:#df0000;fill-opacity:1;stroke:none;font-family:Bitstream Vera Sans"
   x="-165.03085"
   y="-143.01241"
   id="text3027-9"
   sodipodi:linespacing="125%"
   transform="scale(-1,-1)"><tspan
     sodipodi:role="line"
     id="tspan3029-2"
     x="-165.03085"
     y="-143.01241"
     style="font-size:38.40000152999999727px;font-style:italic;font-variant:normal;font-weight:bold;font-stretch:normal;font-family:URW Chancery L;-inkscape-font-specification:URW Chancery L Bold Italic;fill:#df0000;fill-opacity:1">e</tspan></text>


<text
   xml:space="preserve"
   style="font-size:32px;font-style:normal;font-weight:normal;line-height:125%;letter-spacing:0px;word-spacing:0px;fill:#df0000;fill-opacity:1;stroke:none;font-family:Bitstream Vera Sans"
   x="-165.35957"
   y="-121.97439"
   id="text3031-0"
   sodipodi:linespacing="125%"
   transform="scale(-1,-1)"><tspan
     sodipodi:role="line"
     id="tspan3033-6"
     x="-165.35957"
     y="-121.97439"
     style="font-size:38.40000152999999727px;font-style:italic;font-variant:normal;font-weight:bold;font-stretch:normal;font-family:URW Chancery L;-inkscape-font-specification:URW Chancery L Bold Italic;fill:#df0000;fill-opacity:1">r</tspan></text>


</svg>

<?xml version="1.0" encoding="UTF-8"?>
<!-- http://code.google.com/p/vector-playing-cards/ -->
<svg width="167.09pt" height="242.67pt" version="1.1" viewBox="0 0 167.09 242.67" xml:space="preserve" xmlns="http://www.w3.org/2000/svg" xmlns:cc="http://creativecommons.org/ns#" xmlns:dc="http://purl.org/dc/elements/1.1/" xmlns:rdf="http://www.w3.org/1999/02/22-rdf-syntax-ns#"><metadata><rdf:RDF><cc:Work rdf:about=""><dc:format>image/svg+xml</dc:format><dc:type rdf:resource="http://purl.org/dc/dcmitype/StillImage"/><dc:title/></cc:Work></rdf:RDF></metadata>
	<g stroke="#000">
		<path d="m166.84 235.55c0 3.7773-3.0869 6.8691-6.8711 6.8691h-152.85c-3.7749 0-6.8608-3.0918-6.8608-6.8691v-228.43c0-3.7773 3.0859-6.8701 6.8608-6.8701h152.85c3.7842 0 6.8711 3.0928 6.8711 6.8701v228.43z" fill="#fff" stroke-width=".5"/>
		<g stroke="none">
		</g>
		<g stroke="none">
		</g>
		<g stroke="none">
		</g>
	</g>
<text x="3.9446316" y="27.355848" fill="#df0000" font-family="Bitstream Vera Sans" font-size="32px" letter-spacing="0px" word-spacing="0px" style="line-height:125%" xml:space="preserve"><tspan x="3.9446316" y="27.355848" fill="#df0000" font-family="LMMathSymbols9" font-style="italic" font-weight="bold">J</tspan></text>
<g transform="matrix(2.2712 2.2712 -2.0766 2.0766 117.07 94.437)"><path d="m7.989 3.103c-0.242-4.057-7.747-11.693-7.989-13.603-0.242 1.909-7.747 9.545-7.989 13.603-0.169 2.868 1.695 4.057 3.39 4.057 1.8352-0.021581 3.3509-2.8007 3.873-3.341 0.242 0.716-1.603 6.682-2.179 6.682h5.811c-0.576 0-2.421-5.966-2.179-6.682 0.45715 0.4963 1.7971 3.2578 3.874 3.341 1.694-1e-3 3.557-1.189 3.388-4.057z"/></g>
<text x="4.2733507" y="49.051323" fill="#df0000" font-family="Bitstream Vera Sans" font-size="32px" letter-spacing="0px" word-spacing="0px" style="line-height:125%" xml:space="preserve"><tspan x="4.2733507" y="49.051323" fill="#df0000" font-family="URW Chancery L" font-size="38.4px" font-style="italic" font-weight="bold">o</tspan></text>
<text x="2.6297548" y="76.992462" fill="#df0000" font-family="Bitstream Vera Sans" font-size="32px" letter-spacing="0px" word-spacing="0px" style="line-height:125%" xml:space="preserve"><tspan x="2.6297548" y="76.992462" fill="#df0000" font-family="URW Chancery L" font-size="38.4px" font-style="italic" font-weight="bold">k</tspan></text>
<text x="2.6297553" y="99.345383" fill="#df0000" font-family="Bitstream Vera Sans" font-size="32px" letter-spacing="0px" word-spacing="0px" style="line-height:125%" xml:space="preserve"><tspan x="2.6297553" y="99.345383" fill="#df0000" font-family="URW Chancery L" font-size="38.4px" font-style="italic" font-weight="bold">e</tspan></text>
<text x="2.3010359" y="120.3834" fill="#df0000" font-family="Bitstream Vera Sans" font-size="32px" letter-spacing="0px" word-spacing="0px" style="line-height:125%" xml:space="preserve"><tspan x="2.3010359" y="120.3834" fill="#df0000" font-family="URW Chancery L" font-size="38.4px" font-style="italic" font-weight="bold">r</tspan></text>
<g transform="matrix(2.3744 -2.3744 2.2222 2.2222 59.384 95.635)"><path d="m3.676-9c-3.243 0-3.676 3.477-3.676 3.477s-0.433-3.477-3.676-3.477c-2.27 0-4.324 1.559-4.324 4.5 0 3.886 6.5792 7.7938 8 13.5 1.352-5.7014 8-9.614 8-13.5 0-2.941-2.054-4.5-4.324-4.5z" fill="#df0000"/></g><g transform="matrix(-2.1458 -2.1458 2.1458 -2.1458 110.2 305.78)"><path d="m50.291 22.698s2.375-1.9 2.375-4.534c0-1.542-1.369-4.102-4.534-4.102s-4.534 2.561-4.534 4.102c0 2.634 2.375 4.534 2.375 4.534-2.638-2.055-7.341-0.652-7.341 3.455 0 2.056 1.68 4.318 4.318 4.318 3.165 0 4.534-3.455 4.534-3.455s0.402 3.938-1.943 6.046h5.182c-2.345-2.107-1.943-6.046-1.943-6.046s1.369 3.455 4.534 3.455c2.639 0 4.318-2.263 4.318-4.318 0-4.107-4.703-5.51-7.341-3.455z"/></g><g transform="matrix(2.235 -2.235 2.235 2.235 117.79 156.17)"><path d="m3.2433-4.7253c-2.117-2.864-3.2433-5.7747-3.2433-5.7747s-1.1263 2.9107-3.2433 5.7747c-2.118 2.863-4.7567 4.7253-4.7567 4.7253s2.6387 1.8613 4.7567 4.7263c2.117 2.863 3.2433 5.7737 3.2433 5.7737s1.1263-2.9107 3.2433-5.7737c2.118-2.865 4.7567-4.7263 4.7567-4.7263s-2.6387-1.8623-4.7567-4.7253z" fill="#df0000"/></g>
<text transform="scale(-1)" x="-163.71599" y="-215.00195" fill="#df0000" font-family="Bitstream Vera Sans" font-size="32px" letter-spacing="0px" word-spacing="0px" style="line-height:125%" xml:space="preserve"><tspan x="-163.71599" y="-215.00195" fill="#df0000" font-family="LMMathSymbols9" font-style="italic" font-weight="bold">J</tspan></text>
<text transform="scale(-1)" x="-163.38727" y="-193.30647" fill="#df0000" font-family="Bitstream Vera Sans" font-size="32px" letter-spacing="0px" word-spacing="0px" style="line-height:125%" xml:space="preserve"><tspan x="-163.38727" y="-193.30647" fill="#df0000" font-family="URW Chancery L" font-size="38.4px" font-style="italic" font-weight="bold">o</tspan></text>
<text transform="scale(-1)" x="-165.03085" y="-165.36533" fill="#df0000" font-family="Bitstream Vera Sans" font-size="32px" letter-spacing="0px" word-spacing="0px" style="line-height:125%" xml:space="preserve"><tspan x="-165.03085" y="-165.36533" fill="#df0000" font-family="URW Chancery L" font-size="38.4px" font-style="italic" font-weight="bold">k</tspan></text>
<text transform="scale(-1)" x="-165.03085" y="-143.01241" fill="#df0000" font-family="Bitstream Vera Sans" font-size="32px" letter-spacing="0px" word-spacing="0px" style="line-height:125%" xml:space="preserve"><tspan x="-165.03085" y="-143.01241" fill="#df0000" font-family="URW Chancery L" font-size="38.4px" font-style="italic" font-weight="bold">e</tspan></text>
<text transform="scale(-1)" x="-165.35957" y="-121.97439" fill="#df0000" font-family="Bitstream Vera Sans" font-size="32px" letter-spacing="0px" word-spacing="0px" style="line-height:125%" xml:space="preserve"><tspan x="-165.35957" y="-121.97439" fill="#df0000" font-family="URW Chancery L" font-size="38.4px" font-style="italic" font-weight="bold">r</tspan></text>
</svg>
